svg/building/pisa_tower_line.svg

<?xml version="1.0" encoding="UTF-8"?>
<svg width="24px" height="24px" viewBox="0 0 24 24" version="1.1" xmlns="http://www.w3.org/2000/svg" xmlns:xlink="http://www.w3.org/1999/xlink">
    <title>pisa_tower_line</title>
    <g id="页面-1" stroke="none" stroke-width="1" fill="none" fill-rule="evenodd">
        <g id="Building" transform="translate(-192.000000, -192.000000)">
            <g id="pisa_tower_line" transform="translate(192.000000, 192.000000)">
                 <path d="M24,0 L24,24 L0,24 L0,0 L24,0 Z M12.5934901,23.257841 L12.5819402,23.2595131 L12.5108777,23.2950439 L12.4918791,23.2987469 L12.4918791,23.2987469 L12.4767152,23.2950439 L12.4056548,23.2595131 C12.3958229,23.2563662 12.3870493,23.2590235 12.3821421,23.2649074 L12.3780323,23.275831 L12.360941,23.7031097 L12.3658947,23.7234994 L12.3769048,23.7357139 L12.4804777,23.8096931 L12.4953491,23.8136134 L12.4953491,23.8136134 L12.5071152,23.8096931 L12.6106902,23.7357139 L12.6232938,23.7196733 L12.6232938,23.7196733 L12.6266527,23.7031097 L12.609561,23.275831 C12.6075724,23.2657013 12.6010112,23.2592993 12.5934901,23.257841 L12.5934901,23.257841 Z M12.8583906,23.1452862 L12.8445485,23.1473072 L12.6598443,23.2396597 L12.6498822,23.2499052 L12.6498822,23.2499052 L12.6471943,23.2611114 L12.6650943,23.6906389 L12.6699349,23.7034178 L12.6699349,23.7034178 L12.678386,23.7104931 L12.8793402,23.8032389 C12.8914285,23.8068999 12.9022333,23.8029875 12.9078286,23.7952264 L12.9118235,23.7811639 L12.8776777,23.1665331 C12.8752882,23.1545897 12.8674102,23.1470016 12.8583906,23.1452862 L12.8583906,23.1452862 Z M12.1430473,23.1473072 C12.1332178,23.1423925 12.1221763,23.1452606 12.1156365,23.1525954 L12.1099173,23.1665331 L12.0757714,23.7811639 C12.0751323,23.7926639 12.0828099,23.8018602 12.0926481,23.8045676 L12.108256,23.8032389 L12.3092106,23.7104931 L12.3186497,23.7024347 L12.3186497,23.7024347 L12.3225043,23.6906389 L12.340401,23.2611114 L12.337245,23.2485176 L12.337245,23.2485176 L12.3277531,23.2396597 L12.1430473,23.1473072 Z" id="MingCute" fill-rule="nonzero"></path>
                <path d="M9.67291,3.4465 C9.85600136,2.408155 10.8094487,1.69914771 11.8418514,1.80366282 L11.9898,1.82418 L15.9291,2.51877 C16.9673591,2.70186136 17.6764171,3.65533599 17.5719155,4.68773256 L17.5514,4.83568 L17.3777,5.82049 C17.88275,5.90954 18.2319923,6.36311265 18.2025244,6.86292319 L18.1889,6.97894 L17.4943,10.9182 C18.0382,11.0141 18.4014,11.5327 18.3055,12.0766 C18.21645,12.58165 17.7628429,12.9308923 17.2630194,12.9014244 L17.147,12.8878 L16.6261,15.8422 C17.1699,15.9381 17.5331,16.4568 17.4372,17.0007 C17.34815,17.50575 16.8937668,17.8548199 16.3938325,17.8253273 L16.2778,17.8117 L15.5041,22.1746 C15.4264583,22.6123083 15.0712729,22.9411167 14.6391181,22.9928784 L14.5195,23 L6.39599462,23 C6.10027,23 5.81971,22.8691 5.62971,22.6425 C5.46685286,22.4482714 5.38484143,22.2007776 5.39721507,21.9506493 L5.41133,21.8256 L6.42991,16.0752 C5.88644,15.979 5.52366,15.4605 5.61952,14.9169 C5.70857,14.41185 6.16214265,14.0626077 6.6619612,14.0920756 L6.77798,14.1057 L7.29892,11.1513 C6.75503,11.0554 6.39186,10.5367 6.48776,9.99285 C6.57681929,9.48780929 7.03038398,9.13859347 7.53020134,9.16806514 L7.64622,9.18169 L8.34081,5.24246 C8.38687,4.98128 8.53479,4.74908 8.75204,4.59696 C8.93308167,4.47019333 9.149915,4.40768361 9.36831546,4.41701764 L9.49927,4.4313 L9.67291,3.4465 Z M8.39952,16.4225 L7.5887,21 L9.56004,21 L9.96152,18.7231 C10.0574,18.1792 10.5761,17.816 11.12,17.9119 C11.6639,18.0078 12.027,18.5265 11.9311,19.0704 L11.5909,21 L13.6812,21 L14.3082,17.4644 L8.39952,16.4225 Z M9.26854,11.4986 L8.74759,14.453 L10.7172,14.8003 L10.8909,13.8155 C10.9868,13.2716 11.5054,12.9085 12.0493,13.0044 C12.55435,13.09345 12.9035923,13.5469709 12.8741244,14.0467821 L12.8605,14.1628 L12.6868,15.1476 L14.6564,15.4949 L15.1774,12.5405 L9.26854,11.4986 Z M10.1368,6.57457 L9.61583,9.52899 L11.5854,9.87629 L11.7591,8.89148 C11.855,8.34758 12.3737,7.98442 12.9176,8.08032 C13.4614,8.17622 13.8246,8.69488 13.7287,9.23877 L13.5551,10.2236 L15.5247,10.5709 L16.0456,7.61646 L10.1368,6.57457 Z M11.6425,3.79379 L11.4689,4.7786 L15.4081,5.47319 L15.5818,4.48838 L11.6425,3.79379 Z" id="形状" fill="#09244B"></path>
            </g>
        </g>
    </g>
</svg>

<svg xmlns="http://www.w3.org/2000/svg" width="24" height="24"><g fill="none" fill-rule="evenodd"><path d="M24 0v24H0V0h24ZM12.593 23.258l-.011.002-.071.035-.02.004-.014-.004-.071-.035c-.01-.004-.019-.001-.024.005l-.004.01-.017.428.005.02.01.013.104.074.015.004.012-.004.104-.074.012-.016.004-.017-.017-.427c-.002-.01-.009-.017-.017-.018Zm.265-.113-.013.002-.185.093-.01.01-.003.011.018.43.005.012.008.007.201.093c.012.004.023 0 .029-.008l.004-.014-.034-.614c-.003-.012-.01-.02-.02-.022Zm-.715.002a.023.023 0 0 0-.027.006l-.006.014-.034.614c0 .012.007.02.017.024l.015-.002.201-.093.01-.008.004-.011.017-.43-.003-.012-.01-.01-.184-.092Z"/><path fill="#09244B" d="M9.673 3.447a2 2 0 0 1 2.169-1.643l.148.02 3.94.695a2 2 0 0 1 1.642 2.169l-.02.148-.174.984a1 1 0 0 1 .825 1.043l-.014.116-.695 3.94a1 1 0 0 1-.231 1.982l-.116-.013-.52 2.954a1 1 0 0 1-.233 1.983l-.116-.013-.774 4.363a1 1 0 0 1-.865.818l-.12.007H6.397a1 1 0 0 1-.999-1.05l.014-.124 1.019-5.75a1 1 0 0 1 .232-1.984l.116.014.52-2.955a1 1 0 0 1 .232-1.983l.116.014.695-3.94a1 1 0 0 1 1.027-.825l.131.014.174-.985ZM8.4 16.422 7.589 21H9.56l.402-2.277a1 1 0 1 1 1.97.347L11.59 21h2.09l.627-3.536L8.4 16.423Zm.869-4.923-.521 2.954 1.97.347.173-.985a1 1 0 0 1 1.983.232l-.014.116-.173.985 1.97.347.52-2.954-5.908-1.042Zm.868-4.924-.521 2.954 1.97.347.173-.985a1 1 0 0 1 1.97.348l-.174.985 1.97.347.52-2.955-5.908-1.041Zm1.505-2.781-.173.985 3.94.694.173-.985-3.94-.694Z"/></g></svg>
